packages/kaspersky-hexa-ui-icons/src/iconsSVGs/28x20/FlagAo.svg

<svg width="28" height="20" viewBox="0 0 28 20" fill="none" xmlns="http://www.w3.org/2000/svg">
<g clip-path="url(#clip0_5138_311)">
<path d="M0 2C0 0.895431 0.895431 0 2 0H26C27.1046 0 28 0.895431 28 2V18C28 19.1046 27.1046 20 26 20H2C0.895431 20 0 19.1046 0 18V2Z" fill="white"/>
<mask id="mask0_5138_311" style="mask-type:luminance" maskUnits="userSpaceOnUse" x="0" y="0" width="28" height="20">
<path d="M0 2C0 0.895431 0.895431 0 2 0H26C27.1046 0 28 0.895431 28 2V18C28 19.1046 27.1046 20 26 20H2C0.895431 20 0 19.1046 0 18V2Z" fill="white"/>
</mask>
<g mask="url(#mask0_5138_311)">
<rect width="28" height="20" fill="url(#paint0_linear_5138_311)"/>
<path fill-rule="evenodd" clip-rule="evenodd" d="M0 20H28V10.6667H0V20Z" fill="#262626"/>
<path fill-rule="evenodd" clip-rule="evenodd" d="M0 10.6667H28V0H0V10.6667Z" fill="#DD2137"/>
<path fill-rule="evenodd" clip-rule="evenodd" d="M16.1978 11.5528C16.3641 11.2611 16.4962 10.9435 16.5872 10.6039C17.1589 8.47006 15.8926 6.27672 13.7587 5.70495C13.4031 5.60965 13.0375 5.82071 12.9422 6.17635C12.8469 6.532 13.058 6.89756 13.4136 6.99285C14.8362 7.37403 15.6804 8.83626 15.2993 10.2588C15.2469 10.4541 15.1742 10.6385 15.084 10.8104L13.0365 9.44532C12.7301 9.24108 12.3162 9.32387 12.112 9.63022C11.9077 9.93657 11.9905 10.3505 12.2969 10.5547L14.1741 11.8062C13.5627 12.2023 12.7924 12.3479 12.0333 12.1445C11.6776 12.0492 11.3121 12.2602 11.2168 12.6159C11.1215 12.9715 11.3325 13.3371 11.6882 13.4324C13.0213 13.7896 14.3777 13.4293 15.3473 12.5884L16.2969 13.2214C16.6032 13.4256 17.0171 13.3428 17.2214 13.0365C17.4256 12.7301 17.3428 12.3162 17.0365 12.112L16.1978 11.5528ZM13.3333 8.00002C13.3333 8.36821 13.0349 8.66668 12.6667 8.66668C12.2985 8.66668 12 8.36821 12 8.00002C12 7.63183 12.2985 7.33335 12.6667 7.33335C13.0349 7.33335 13.3333 7.63183 13.3333 8.00002Z" fill="#F8D84B"/>
</g>
</g>
<defs>
<linearGradient id="paint0_linear_5138_311" x1="0" y1="0" x2="0" y2="20" gradientUnits="userSpaceOnUse">
<stop stop-color="#FF323E"/>
<stop offset="1" stop-color="#FD0D1B"/>
</linearGradient>
<clipPath id="clip0_5138_311">
<rect width="28" height="20" fill="white"/>
</clipPath>
</defs>
</svg>

<svg xmlns="http://www.w3.org/2000/svg" width="28" height="20" fill="none" viewBox="0 0 28 20"><g clip-path="url(#a)"><path fill="#fff" d="M0 2C0 .8954.8954 0 2 0h24c1.1046 0 2 .8954 2 2v16c0 1.1046-.8954 2-2 2H2c-1.1046 0-2-.8954-2-2z"/><mask id="b" width="28" height="20" x="0" y="0" maskUnits="userSpaceOnUse" style="mask-type:luminance"><path fill="#fff" d="M0 2C0 .8954.8954 0 2 0h24c1.1046 0 2 .8954 2 2v16c0 1.1046-.8954 2-2 2H2c-1.1046 0-2-.8954-2-2z"/></mask><g mask="url(#b)"><path fill="url(#c)" d="M0 0h28v20H0z"/><path fill="#262626" fill-rule="evenodd" d="M0 20h28v-9.3333H0z" clip-rule="evenodd"/><path fill="#dd2137" fill-rule="evenodd" d="M0 10.6667h28V0H0z" clip-rule="evenodd"/><path fill="#f8d84b" fill-rule="evenodd" d="M16.1978 11.5528a4 4 0 0 0 .3894-.9489c.5717-2.1338-.6946-4.3272-2.8285-4.899a.6667.6667 0 0 0-.3451 1.288c1.4226.3811 2.2668 1.8434 1.8857 3.2659a2.68 2.68 0 0 1-.2153.5516l-2.0475-1.365a.6666.6666 0 1 0-.7396 1.1093l1.8772 1.2515c-.6114.3961-1.3817.5417-2.1408.3383a.6666.6666 0 1 0-.3451 1.2879c1.3331.3572 2.6895-.0031 3.6591-.844l.9496.633a.6668.6668 0 0 0 .7396-1.1094zM13.3333 8A.6666.6666 0 1 1 12 8a.6667.6667 0 0 1 1.3333 0" clip-rule="evenodd"/></g></g><defs><linearGradient id="c" x1="0" x2="0" y1="0" y2="20" gradientUnits="userSpaceOnUse"><stop stop-color="#ff323e"/><stop offset="1" stop-color="#fd0d1b"/></linearGradient><clipPath id="a"><path fill="#fff" d="M0 0h28v20H0z"/></clipPath></defs></svg>
